;FLAVOR:Marlin
;TIME:8022
;Filament used: 10.7391m
;Layer height: 0.2
;MINX:81.406
;MINY:59.469
;MINZ:0.2
;MAXX:153.594
;MAXY:175.531
;MAXZ:24.2
;Generated with Cura_SteamEngine 4.13.0
M140 S99
M105
M190 S99
M104 S230
M105
M109 S230
M82 ;absolute extrusion mode
; Ender 3 Custom Start G-code
G92 E0 ; Reset Extruder
G28 ; Home all axes
G1 Z2.0 F3000 ; Move Z Axis up little to prevent scratching of Heat Bed
G1 X0.1 Y20 Z0.3 F5000.0 ; Move to start position
G1 Z2.0 F3000 ; Move Z Axis up little to prevent scratching of Heat Bed
G1 X5 Y20 Z0.3 F5000.0 ; Move over to prevent blob squish
G92 E0
G92 E0
G1 F3000 E-8
;LAYER_COUNT:121
;LAYER:0
M107
;MESH:youtek vfinal.stl
G0 F6000 X118.211 Y159.183 Z0.2
;TYPE:WALL-INNER
G1 F3000 E0
G1 F480 X117.757 Y159.143 E0.0288
G1 X117.474 Y159.137 E0.04669
G1 X117.037 Y159.154 E0.07433
G1 X116.568 Y159.217 E0.10423
G1 X116.123 Y159.318 E0.13307
G1 X115.683 Y159.454 E0.16217
G1 X115.251 Y159.635 E0.19177
G1 X114.841 Y159.849 E0.221
G1 X114.453 Y160.098 E0.25013
G1 X114.087 Y160.38 E0.27933
G1 X113.743 Y160.694 E0.30876
G1 X113.434 Y161.037 E0.33794
G1 X113.156 Y161.397 E0.36668
G1 X112.904 Y161.791 E0.39624
G1 X112.689 Y162.208 E0.42588
G1 X112.518 Y162.627 E0.45448
G1 X112.375 Y163.07 E0.4839
G1 X112.277 Y163.525 E0.51331
G1 X112.217 Y163.977 E0.54213
G1 X112.197 Y164.437 E0.57122
G1 X112.217 Y164.902 E0.60064
G1 X112.28 Y165.369 E0.63042
G1 X112.381 Y165.819 E0.65956
G1 X112.519 Y166.252 E0.68828
G1 X112.698 Y166.686 E0.71795
G1 X112.914 Y167.097 E0.74729
G1 X113.16 Y167.484 E0.77627
G1 X113.44 Y167.847 E0.80524
G1 X113.756 Y168.193 E0.83485
G1 X114.101 Y168.504 E0.8642
G1 X114.459 Y168.781 E0.89281
G1 X114.854 Y169.033 E0.92242
G1 X115.263 Y169.245 E0.95153
G1 X115.692 Y169.423 E0.98088
G1 X116.164 Y169.571 E1.01214
G1 X116.788 Y169.692 E1.05231
G1 X117.273 Y169.735 E1.08308
G1 X117.731 Y169.735 E1.11202
G1 X118.204 Y169.695 E1.14202
G1 X118.657 Y169.61 E1.17114
G1 X119.094 Y169.495 E1.1997
G1 X119.538 Y169.332 E1.22959
G1 X119.954 Y169.137 E1.25862
G1 X120.349 Y168.91 E1.28741
G1 X120.758 Y168.624 E1.31895
G1 X121.243 Y168.195 E1.35987
G1 X121.569 Y167.836 E1.39052
G1 X121.842 Y167.478 E1.41897
G1 X122.094 Y167.086 E1.44842
G1 X122.312 Y166.666 E1.47832
G1 X122.482 Y166.245 E1.50701
G1 X122.625 Y165.805 E1.53625
G1 X122.723 Y165.349 E1.56572
G1 X122.783 Y164.897 E1.59454
G1 X122.803 Y164.434 E1.62382
G1 X122.783 Y163.971 E1.65311
G1 X122.72 Y163.506 E1.68276
G1 X122.619 Y163.052 E1.71216
G1 X122.48 Y162.619 E1.74089
G1 X122.304 Y162.191 E1.77014
G1 X122.088 Y161.779 E1.79954
G1 X121.839 Y161.391 E1.82867
G1 X121.557 Y161.024 E1.85792
G1 X121.244 Y160.683 E1.88717
G1 X120.902 Y160.371 E1.91642
G1 X120.534 Y160.088 E1.94576
G1 X120.143 Y159.842 E1.97495
G1 X119.739 Y159.631 E2.00376
G1 X119.308 Y159.452 E2.03325
G1 X118.835 Y159.304 E2.06457
G1 X118.211 Y159.183 E2.10474
G0 F6000 X118.099 Y159.976
G1 F480 X117.713 Y159.942 E2.12922
G1 X117.481 Y159.937 E2.14389
G1 X117.106 Y159.952 E2.16761
G1 X116.71 Y160.005 E2.19285
G1 X116.33 Y160.091 E2.21747
G1 X115.957 Y160.207 E2.24216
G1 X115.591 Y160.36 E2.26723
G1 X115.243 Y160.542 E2.29205
G1 X114.914 Y160.753 E2.31675
G1 X114.602 Y160.993 E2.34162
G1 X114.311 Y161.259 E2.36653
G1 X114.048 Y161.55 E2.39132
G1 X113.811 Y161.857 E2.41583
G1 X113.598 Y162.191 E2.44086
G1 X113.416 Y162.543 E2.46591
G1 X113.27 Y162.901 E2.49034
G1 X113.149 Y163.277 E2.5153
G1 X113.066 Y163.662 E2.54019
G1 X113.015 Y164.047 E2.56473
G1 X112.998 Y164.437 E2.5894
G1 X113.015 Y164.832 E2.61439
G1 X113.068 Y165.228 E2.63963
G1 X113.154 Y165.61 E2.66438
G1 X113.271 Y165.978 E2.68878
G1 X113.423 Y166.346 E2.71394
G1 X113.607 Y166.695 E2.73887
G1 X113.816 Y167.024 E2.76351
G1 X114.054 Y167.333 E2.78815
G1 X114.32 Y167.625 E2.81311
G1 X114.614 Y167.889 E2.83808
G1 X114.92 Y168.126 E2.86254
G1 X115.254 Y168.339 E2.88758
G1 X115.601 Y168.519 E2.91228
G1 X115.965 Y168.67 E2.93718
G1 X116.361 Y168.794 E2.96341
G1 X116.9 Y168.899 E2.99811
G1 X117.308 Y168.935 E3.02399
G1 X117.697 Y168.935 E3.04857
G1 X118.096 Y168.901 E3.07388
G1 X118.482 Y168.829 E3.09869
G1 X118.854 Y168.731 E3.123
G1 X119.23 Y168.593 E3.14832
G1 X119.584 Y168.427 E3.17302
G1 X119.92 Y168.234 E3.19751
G1 X120.262 Y167.995 E3.22388
G1 X120.68 Y167.625 E3.25915
G1 X120.954 Y167.323 E3.28492
G1 X121.187 Y167.018 E3.30918
G1 X121.401 Y166.685 E3.33419
G1 X121.584 Y166.331 E3.35938
G1 X121.73 Y165.971 E3.38393
G1 X121.851 Y165.597 E3.40877
G1 X121.934 Y165.212 E3.43366
G1 X121.985 Y164.827 E3.4582
G1 X122.002 Y164.434 E3.48306
G1 X121.985 Y164.042 E3.50785
G1 X121.932 Y163.647 E3.53304
G1 X121.846 Y163.262 E3.55797
G1 X121.728 Y162.894 E3.58239
G1 X121.578 Y162.53 E3.60727
G1 X121.395 Y162.181 E3.63217
G1 X121.184 Y161.851 E3.65692
G1 X120.944 Y161.539 E3.6818
G1 X120.679 Y161.25 E3.70658
G1 X120.388 Y160.985 E3.73145
G1 X120.076 Y160.745 E3.75632
G1 X119.744 Y160.536 E3.78112
G1 X119.4 Y160.356 E3.80565
G1 X119.035 Y160.205 E3.83061
G1 X118.639 Y160.081 E3.85684
G1 X118.099 Y159.976 E3.8916
G0 F6000 X117.987 Y160.769
G1 F480 X117.669 Y160.741 E3.91177
G1 X117.489 Y160.737 E3.92315
G1 X117.175 Y160.75 E3.94301
G1 X116.851 Y160.793 E3.96367
G1 X116.538 Y160.864 E3.98395
G1 X116.231 Y160.96 E4.00427
G1 X115.931 Y161.085 E4.02481
G1 X115.645 Y161.235 E4.04522
G1 X115.374 Y161.408 E4.06554
G1 X115.117 Y161.606 E4.08604
G1 X114.879 Y161.824 E4.10644
G1 X114.662 Y162.063 E4.12684
G1 X114.467 Y162.317 E4.14707
G1 X114.292 Y162.591 E4.16762
G1 X114.143 Y162.879 E4.18811
G1 X114.022 Y163.175 E4.20832
G1 X113.923 Y163.484 E4.22882
G1 X113.855 Y163.799 E4.24919
G1 X113.813 Y164.117 E4.26946
G1 X113.799 Y164.437 E4.2897
G1 X113.813 Y164.762 E4.31026
G1 X113.856 Y165.087 E4.33097
G1 X113.927 Y165.401 E4.35132
G1 X114.023 Y165.704 E4.3714
G1 X114.148 Y166.006 E4.39206
G1 X114.299 Y166.293 E4.41255
G1 X114.472 Y166.564 E4.43287
G1 X114.668 Y166.819 E4.45319
G1 X114.885 Y167.057 E4.47355
G1 X115.127 Y167.275 E4.49413
G1 X115.38 Y167.471 E4.51436
G1 X115.654 Y167.645 E4.53487
G1 X115.939 Y167.793 E4.55516
G1 X116.238 Y167.917 E4.57562
G1 X116.558 Y168.017 E4.5968
G1 X117.012 Y168.106 E4.62604
G1 X117.343 Y168.135 E4.64704
G1 X117.663 Y168.135 E4.66726
G1 X117.989 Y168.107 E4.68794
G1 X118.307 Y168.048 E4.70838
G1 X118.614 Y167.967 E4.72844
G1 X118.922 Y167.854 E4.74917
G1 X119.214 Y167.717 E4.76955
G1 X119.491 Y167.558 E4.78974
G1 X119.766 Y167.366 E4.81093
G1 X120.117 Y167.055 E4.84057
G1 X120.339 Y166.81 E4.86146
G1 X120.532 Y166.558 E4.88152
G1 X120.708 Y166.284 E4.9021
G1 X120.857 Y165.996 E4.92259
G1 X120.978 Y165.698 E4.94292
G1 X121.077 Y165.39 E4.96336
G1 X121.145 Y165.075 E4.98373
G1 X121.187 Y164.757 E5.004
G1 X121.201 Y164.434 E5.02443
G1 X121.187 Y164.112 E5.0448
G1 X121.144 Y163.788 E5.06545
G1 X121.073 Y163.472 E5.08592
G1 X120.976 Y163.169 E5.10602
G1 X120.852 Y162.869 E5.12654
G1 X120.702 Y162.582 E5.147
G1 X120.529 Y162.311 E5.16732
G1 X120.331 Y162.054 E5.18782
G1 X120.114 Y161.817 E5.20813
G1 X119.874 Y161.599 E5.22862
G1 X119.618 Y161.402 E5.24903
G1 X119.345 Y161.23 E5.26942
G1 X119.061 Y161.082 E5.28966
G1 X118.762 Y160.958 E5.31011
G1 X118.442 Y160.858 E5.3313
G1 X117.987 Y160.769 E5.3606
G0 F6000 X117.874 Y161.562
;TYPE:WALL-OUTER
G1 F480 X117.624 Y161.54 E5.37646
G1 X117.497 Y161.537 E5.38449
G1 X117.244 Y161.548 E5.40049
G1 X116.992 Y161.581 E5.41655
G1 X116.747 Y161.637 E5.43243
G1 X116.505 Y161.713 E5.44846
G1 X116.271 Y161.81 E5.46447
G1 X116.046 Y161.928 E5.48052
G1 X115.834 Y162.063 E5.49641
G1 X115.633 Y162.218 E5.51245
G1 X115.447 Y162.389 E5.52841
G1 X115.276 Y162.577 E5.54447
G1 X115.122 Y162.777 E5.56043
G1 X114.986 Y162.99 E5.5764
G1 X114.87 Y163.215 E5.59239
G1 X114.774 Y163.449 E5.60838
G1 X114.697 Y163.69 E5.62437
G1 X114.644 Y163.936 E5.64027
G1 X114.611 Y164.187 E5.65627
G1 X114.6 Y164.437 E5.67208
G1 X114.611 Y164.693 E5.68827
G1 X114.644 Y164.946 E5.7044
G1 X114.7 Y165.191 E5.72028
G1 X114.776 Y165.431 E5.73619
G1 X114.873 Y165.667 E5.75231
G1 X114.991 Y165.891 E5.76831
G1 X115.127 Y166.104 E5.78428
G1 X115.281 Y166.304 E5.80023
G1 X115.45 Y166.489 E5.81607
G1 X115.64 Y166.661 E5.83226
G1 X115.84 Y166.815 E5.84821
G1 X116.054 Y166.951 E5.86424
G1 X116.277 Y167.067 E5.88012
G1 X116.511 Y167.164 E5.89613
G1 X116.755 Y167.24 E5.91228
G1 X117.124 Y167.313 E5.93605
G1 X117.378 Y167.335 E5.95216
G1 X117.628 Y167.335 E5.96796
G1 X117.882 Y167.313 E5.98407
G1 X118.132 Y167.267 E6.00014
G1 X118.374 Y167.203 E6.01596
G1 X118.614 Y167.115 E6.03211
G1 X118.844 Y167.007 E6.04817
G1 X119.061 Y166.882 E6.06399
G1 X119.27 Y166.736 E6.0801
G1 X119.554 Y166.485 E6.10405
G1 X119.724 Y166.297 E6.12007
G1 X119.877 Y166.098 E6.13594
G1 X120.014 Y165.884 E6.15199
G1 X120.13 Y165.66 E6.16793
G1 X120.226 Y165.425 E6.18398
G1 X120.303 Y165.184 E6.19996
G1 X120.356 Y164.938 E6.21587
G1 X120.389 Y164.687 E6.23186
G1 X120.4 Y164.434 E6.24787
G1 X120.389 Y164.181 E6.26387
G1 X120.356 Y163.929 E6.27993
G1 X120.3 Y163.682 E6.29594
G1 X120.224 Y163.443 E6.31179
G1 X120.127 Y163.208 E6.32785
G1 X120.009 Y162.983 E6.34391
G1 X119.874 Y162.771 E6.35979
G1 X119.719 Y162.57 E6.37583
G1 X119.549 Y162.385 E6.39171
G1 X119.36 Y162.213 E6.40786
G1 X119.16 Y162.059 E6.42381
G1 X118.946 Y161.924 E6.4398
G1 X118.723 Y161.808 E6.45568
G1 X118.489 Y161.711 E6.47169
G1 X118.245 Y161.635 E6.48784
G1 X117.874 Y161.562 E6.51174
G0 F6000 X117.997 Y160.691
G1 F3000 E-1.48826
G0 F6000 X112.994 Y156.437
G0 X90.822 Y156.428
G0 X90.832 Y83.71
G0 X91.002 Y82.742
G0 X91.338 Y81.818
G0 X91.83 Y80.967
G0 X92.46 Y80.213
G0 X93.215 Y79.58
G0 X99.426 Y75.211
G0 X95.411 Y67.73
G0 X106.006 Y67.73
G0 X115.092 Y68.55
G0 X115.811 Y67.916
G0 X116.555 Y67.568
G0 X117.208 Y67.454
G0 X122.403 Y67.15
;TYPE:WALL-INNER
G1 F3000 E6.51174
G1 F480 X122.403 Y69.866 E6.68337
G1 X121.133 Y69.866 E6.76363
G1 X121.073 Y69.599 E6.78092
G1 X120.977 Y69.296 E6.80101
G1 X120.852 Y68.994 E6.82166
G1 X120.701 Y68.707 E6.84216
G1 X120.528 Y68.436 E6.86247
G1 X120.332 Y68.181 E6.8828
G1 X120.115 Y67.943 E6.90315
G1 X119.873 Y67.725 E6.92373
G1 X119.62 Y67.529 E6.94396
G1 X119.346 Y67.355 E6.96447
G1 X119.061 Y67.207 E6.98477
G1 X118.762 Y67.083 E7.00522
G1 X118.442 Y66.983 E7.02641
G1 X117.988 Y66.894 E7.05564
G1 X117.657 Y66.865 E7.07664
G1 X117.337 Y66.865 E7.09686
G1 X117.011 Y66.893 E7.11754
G1 X116.693 Y66.952 E7.13798
G1 X116.386 Y67.033 E7.15804
G1 X116.078 Y67.146 E7.17878
G1 X115.786 Y67.283 E7.19916
G1 X115.509 Y67.442 E7.21934
G1 X115.234 Y67.634 E7.24054
G1 X114.883 Y67.945 E7.27017
G1 X114.661 Y68.19 E7.29107
G1 X114.468 Y68.442 E7.31112
G1 X114.292 Y68.716 E7.3317
G1 X114.143 Y69.004 E7.3522
G1 X114.022 Y69.302 E7.37252
G1 X113.923 Y69.61 E7.39297
G1 X113.855 Y69.925 E7.41333
G1 X113.813 Y70.243 E7.4336
G1 X113.799 Y70.566 E7.45403
G1 X113.813 Y70.888 E7.4744
G1 X113.856 Y71.212 E7.49505
G1 X113.927 Y71.528 E7.51552
G1 X114.024 Y71.831 E7.53563
G1 X114.147 Y72.129 E7.556
G1 X114.16 Y72.154 E7.55778
G1 X114.16 Y72.979 E7.60992
G1 X114.103 Y72.805
G1 X113.939 Y72.417 E7.61058
G1 X113.752 Y72.054 E7.62811
G1 X113.539 Y71.718 E7.64174
G1 X113.301 Y71.399 E7.65878
G1 X113.019 Y71.084 E7.6855
G1 X112.746 Y70.827 E7.70919
G1 X112.462 Y70.599 E7.73221
G1 X112.161 Y70.398 E7.75508
G1 X111.843 Y70.221 E7.77808
G1 X111.502 Y70.067 E7.80173
G1 X111.134 Y69.938 E7.82637
G1 X110.738 Y69.835 E7.85223
G1 X110.299 Y69.76 E7.88037
G1 X109.815 Y69.721 E7.91106
G1 X109.398 Y69.719 E7.93741
G1 X108.917 Y69.75 E7.96787
G1 X108.478 Y69.813 E7.99589
G1 X108.078 Y69.904 E8.02182
G1 X107.708 Y70.02 E8.04632
G1 X107.363 Y70.16 E8.06985
G1 X107.039 Y70.323 E8.09277
G1 X106.735 Y70.51 E8.11532
G1 X106.446 Y70.722 E8.13798
G1 X106.169 Y70.963 E8.16118
G1 X105.908 Y71.232 E8.18486
G1 X105.608 Y71.606 E8.21516
G1 X105.392 Y71.937 E8.24014
G1 X105.196 Y72.297 E8.26604
G1 X105.022 Y72.696 E8.29355
G1 X104.873 Y73.145 E8.32345
G1 X104.75 Y73.65 E8.35629
G1 X104.668 Y74.168 E8.38943
G1 X104.638 Y74.467 E8.40842
G1 X104.619 Y74.785 E8.42856
G1 X104.614 Y75.162 E8.45238
G1 X104.621 Y75.478 E8.47236
G1 X104.64 Y75.783 E8.49167
G1 X104.706 Y76.321 E8.52592
G1 X104.808 Y76.812 E8.55761
G1 X104.939 Y77.262 E8.58723
G1 X105.098 Y77.68 E8.61549
G1 X105.252 Y78 E8.63793
G1 X102.54 Y78 E8.80932
G1 X102.54 Y75.296 E8.98019
G1 X106.982 Y67.15 E9.56654
G1 X102.876 Y67.15 E9.82601
G1 X100.707 Y71.218 E10.11734
G1 X98.553 Y67.15 E10.40823
G1 X94.44 Y67.15 E10.66815
G1 X98.864 Y75.354 E11.25717
G1 X98.864 Y78 E11.42438
G1 X96.427 Y78 E11.57839
G1 X95.908 Y78.022 E11.61122
G1 X95.372 Y78.093 E11.64538
G1 X94.845 Y78.209 E11.67948
G1 X94.327 Y78.374 E11.71384
G1 X93.828 Y78.579 E11.74793
G1 X93.348 Y78.831 E11.78219
G1 X92.893 Y79.12 E11.81625
G1 X92.462 Y79.452 E11.85063
G1 X92.063 Y79.816 E11.88476
G1 X91.699 Y80.216 E11.91894
G1 X91.37 Y80.645 E11.95311
G1 X91.081 Y81.1 E11.98717
G1 X90.829 Y81.58 E12.02143
G1 X90.624 Y82.079 E12.05552
G1 X90.459 Y82.597 E12.08988
G1 X90.343 Y83.124 E12.12398
G1 X90.272 Y83.66 E12.15814
G1 X90.25 Y84.178 E12.19091
G1 X90.25 Y157 E16.79284
G1 X144.75 Y157 E20.23693
G1 X144.75 Y84.177 E24.83892
G1 X144.728 Y83.658 E24.87175
G1 X144.657 Y83.122 E24.90592
G1 X144.541 Y82.595 E24.94002
G1 X144.376 Y82.077 E24.97437
G1 X144.171 Y81.578 E25.00846
G1 X143.919 Y81.098 E25.04272
G1 X143.63 Y80.643 E25.07679
G1 X143.443 Y80.4 E25.09616
G1 X144.131 Y80.4 E25.12093
G1 X144.131 Y78.928 E25.21396
G1 X144.131 Y77.726 E25.28992
G1 X144.85 Y78.688 E25.32979
G1 X146.129 Y80.4 E25.46484
G1 X148.966 Y80.4 E25.64412
G1 X149.627 Y79.07 E25.73798
G1 X146.266 Y74.621 E26.09034
G1 X149.406 Y71.32 E26.37824
G1 X148.782 Y69.866 E26.47823
G1 X146.011 Y69.866 E26.65334
G1 X144.82 Y71.128 E26.763
G1 X144.131 Y71.859 E26.82648
G1 X144.131 Y70.854 E26.8605
G1 X144.131 Y66.452 E27.13868
G1 X140.513 Y66.452 E27.36731
G1 X140.513 Y71.711 E27.69965
G1 X140.513 Y72.674 E27.76051
G1 X140.402 Y72.376
G1 X140.242 Y72.035 E27.762
G1 X140.058 Y71.711 E27.77398
G1 X139.847 Y71.405 E27.79747
G1 X139.593 Y71.097 E27.8227
G1 X139.353 Y70.851 E27.84442
G1 X139.101 Y70.632 E27.86552
G1 X138.829 Y70.432 E27.88685
G1 X138.545 Y70.26 E27.90784
G1 X138.244 Y70.109 E27.92912
G1 X137.92 Y69.979 E27.95118
G1 X137.57 Y69.871 E27.97432
G1 X137.185 Y69.789 E27.9992
G1 X136.757 Y69.734 E28.02647
G1 X136.241 Y69.716 E28.0591
G1 X135.804 Y69.739 E28.08675
G1 X135.407 Y69.791 E28.11205
G1 X135.035 Y69.871 E28.1361
G1 X134.687 Y69.975 E28.15905
G1 X134.358 Y70.104 E28.18138
G1 X134.045 Y70.258 E28.20343
G1 X133.743 Y70.44 E28.22571
G1 X133.454 Y70.648 E28.24821
G1 X133.175 Y70.887 E28.27143
G1 X132.905 Y71.16 E28.29569
G1 X132.688 Y71.416 E28.3169
G1 X132.454 Y71.741 E28.34221
G1 X132.24 Y72.096 E28.3684
G1 X132.047 Y72.487 E28.39596
G1 X131.878 Y72.922 E28.42545
G1 X131.738 Y73.4 E28.45693
G1 X131.676 Y73.675 E28.47474
G1 X131.624 Y73.962 E28.49317
G1 X131.585 Y74.24 E28.51091
G1 X131.556 Y74.537 E28.52977
G1 X131.537 Y74.856 E28.54997
G1 X131.531 Y75.199 E28.57164
G1 X131.535 Y75.471 E28.58883
G1 X131.551 Y75.77 E28.60776
G1 X131.578 Y76.058 E28.62604
G1 X131.654 Y76.56 E28.65812
G1 X131.76 Y77.016 E28.68771
G1 X131.893 Y77.433 E28.71537
G1 X132.051 Y77.812 E28.74132
G1 X132.147 Y78 E28.75465
G1 X129.5 Y78 E28.92193
G1 X129.5 Y70.671 E29.38508
G1 X132.936 Y70.671 E29.60222
G1 X132.936 Y67.15 E29.82472
G1 X122.403 Y67.15 E30.49035
G0 F6000 X122.903 Y67.95
G0 X123.203 Y67.95
;TYPE:WALL-OUTER
G1 F480 X123.203 Y69.871 E30.61174
G1 X126.639 Y69.871 E30.82888
G1 X126.639 Y78.8 E31.39314
G1 X122.564 Y78.8 E31.65066
G1 X122.564 Y70.666 E32.16468
G1 X120.531 Y70.666 E32.29315
